src/assets/tabbar/icon-stores.svg

<?xml version="1.0" encoding="UTF-8" standalone="no"?>
<svg width="28px" height="28px" viewBox="0 0 28 28" version="1.1" xmlns="http://www.w3.org/2000/svg" xmlns:xlink="http://www.w3.org/1999/xlink">
    <!-- Generator: Sketch 43.2 (39069) - http://www.bohemiancoding.com/sketch -->
    <title>Rectangle 334</title>
    <desc>Created with Sketch.</desc>
    <defs>
        <rect id="path-1" x="0" y="0" width="28" height="28"></rect>
    </defs>
    <g id="Page-1" stroke="none" stroke-width="1" fill="none" fill-rule="evenodd">
        <g id="Group-2">
            <g id="Rectangle-334" opacity="0">
                <use fill="#D8D8D8" fill-rule="evenodd" xlink:href="#path-1"></use>
                <rect stroke="#979797" stroke-width="1" x="0.5" y="0.5" width="27" height="27"></rect>
            </g>
            <path d="M8.79470766,13.6024194 L8.79470766,16.0102823 C8.79470766,16.1735887 8.66317817,16.3069556 8.50080727,16.3069556 L5.96546289,16.3069556 C5.80309199,16.3069556 5.6715625,16.1735887 5.6715625,16.0102823 L5.6715625,13.6024194 C5.6715625,13.4391129 5.80309199,13.3075605 5.96546289,13.3075605 L8.50080727,13.3075605 C8.66317817,13.3075605 8.79470766,13.4391129 8.79470766,13.6024194 L8.79470766,13.6024194 Z M4.91509073,13.6024194 L4.91509073,16.0102823 C4.91509073,16.5936492 5.38587476,17.0681452 5.9655106,17.0681452 L8.50085045,17.0681452 C9.08048628,17.0681452 9.55217742,16.5936492 9.55217742,16.0102823 L9.55217742,13.6024194 C9.55217742,13.0199597 9.08048628,12.5454637 8.50085045,12.5454637 L5.9655106,12.5454637 C5.38587476,12.5454637 4.91509073,13.0199597 4.91509073,13.6024194 L4.91509073,13.6024194 Z M24.4187803,15.8506048 C22.8612684,15.8506048 21.5949395,14.5759073 21.5949395,13.0090726 C21.5949395,11.4422379 22.8612684,10.1666331 24.4187803,10.1666331 C25.9762922,10.1666331 27.2435282,11.4422379 27.2435282,13.0090726 C27.2435282,14.5759073 25.9762922,15.8506048 24.4187803,15.8506048 L24.4187803,15.8506048 Z M24.4187349,9.40544355 C22.4439593,9.40544355 20.8374698,11.0212702 20.8374698,13.0090726 C20.8374698,14.9959677 22.4439593,16.6127016 24.4187349,16.6127016 C26.3935105,16.6127016 28,14.9959677 28,13.0090726 C28,11.0212702 26.3935105,9.40544355 24.4187349,9.40544355 L24.4187349,9.40544355 Z M19.1521229,22.3365927 L17.5792021,22.3365927 L17.5792021,13.4799395 C17.5792021,12.7858871 17.018611,12.2206653 16.3283038,12.2206653 L12.1701326,12.2206653 C11.4807325,12.2206653 10.9192342,12.7858871 10.9192342,13.4799395 L10.9192342,22.3365927 L3.70683913,22.3365927 L3.70683913,8.79395161 C3.70683913,8.74586694 3.69595386,8.70050403 3.67962596,8.6578629 L5.83037288,8.50635081 C6.03900713,8.49183468 6.19593636,8.31038306 6.18142268,8.09989919 C6.16781609,7.89032258 5.98185949,7.73245968 5.77776077,7.74606855 L1.7565625,8.02913306 L1.76654066,6.73084677 L24.3988206,4.76391129 L24.3879353,6.06129032 L8.12444246,7.56733871 C7.91580821,7.58639113 7.76341451,7.77237903 7.78246372,7.98195565 C7.80151293,8.190625 7.98202691,8.34758065 8.19428957,8.32580645 L19.1521229,7.30967742 L19.1521229,22.3365927 Z M11.6766129,22.3365927 L11.6766129,13.4799395 C11.6766129,13.2059476 11.8979448,12.9827621 12.1700743,12.9827621 L16.3282122,12.9827621 C16.6003416,12.9827621 16.8225806,13.2059476 16.8225806,13.4799395 L16.8225806,22.3365927 L11.6766129,22.3365927 Z M24.4223519,6.82157258 C24.8269206,6.82157258 25.1561996,6.49042339 25.1561996,6.08306452 L25.1561996,4.73760081 C25.1561996,4.33114919 24.8287348,4 24.3924174,4 L24.3896961,4 L1.73384775,5.97056452 C1.32927903,5.97056452 1,6.30171371 1,6.70907258 L1,8.05453629 C1,8.4609879 1.32746482,8.7921371 1.75833957,8.7921371 L1.75924668,8.7921371 L2.96751021,8.7077621 C2.96025337,8.7358871 2.94936812,8.76310484 2.94936812,8.79395161 L2.94936812,22.7176411 C2.94936812,22.928125 3.11899671,23.0986895 3.3285379,23.0986895 L11.2974532,23.0986895 L17.2008909,23.0986895 L19.5303359,23.0986895 C19.73897,23.0986895 19.9085986,22.928125 19.9085986,22.7176411 L19.9085986,7.23981855 L24.4223519,6.82157258 Z" id="Fill-1" fill-opacity="0.58" fill="#000000"></path>
        </g>
    </g>
</svg>

<svg width="28" height="28" xmlns="http://www.w3.org/2000/svg"><defs><path id="a" d="M0 0h28v28H0z"/></defs><path d="M8.795 13.602v2.408a.296.296 0 01-.294.297H5.965a.296.296 0 01-.293-.297v-2.408c0-.163.131-.294.293-.294h2.536c.162 0 .294.131.294.294zm-3.88 0v2.408c0 .584.47 1.058 1.05 1.058h2.536c.58 0 1.051-.474 1.051-1.058v-2.408c0-.582-.472-1.057-1.051-1.057H5.966c-.58 0-1.05.475-1.05 1.057zm19.504 2.249a2.836 2.836 0 01-2.824-2.842c0-1.567 1.266-2.842 2.824-2.842a2.837 2.837 0 012.825 2.842 2.836 2.836 0 01-2.825 2.842zm0-6.446c-1.975 0-3.582 1.616-3.582 3.604 0 1.987 1.607 3.604 3.582 3.604 1.975 0 3.581-1.617 3.581-3.604 0-1.988-1.606-3.604-3.581-3.604zm-5.267 12.932H17.58V13.48c0-.694-.56-1.26-1.25-1.26H12.17c-.69 0-1.25.566-1.25 1.26v8.857H3.706V8.794a.38.38 0 00-.027-.136l2.15-.152a.38.38 0 00.351-.406.382.382 0 00-.403-.354l-4.021.283.01-1.298 22.632-1.967-.011 1.297L8.124 7.567a.38.38 0 00-.342.415c.02.209.2.366.412.344L19.152 7.31v15.027zm-7.475 0V13.48c0-.274.22-.497.493-.497h4.158c.272 0 .495.223.495.497v8.857h-5.146zM24.422 6.822a.737.737 0 00.734-.739V4.738A.743.743 0 0024.392 4h-.002L1.734 5.97A.737.737 0 001 6.71v1.345c0 .406.327.737.758.737h.001l1.209-.084c-.008.028-.019.055-.019.086v13.924c0 .21.17.38.38.38H19.53a.38.38 0 00.378-.38V7.24l4.513-.418z" fill-opacity=".58" fill="#000" fill-rule="evenodd"/></svg>
